X:157
T:Willing Quaker THO4.157, The
M:6/8
L:1/8
Z:vmp. Peter Dunk 2010/11.from a transcription by Fynn Titford-Mock 2007
B:Thompson's Compleat Collection of 200 Favourite Country Dances Volume IV.
Q:3/8=100
K:Eb
E2 c BGE|FGE DCB,|E2 c BGE|GAF E3::EeE FeF|EGE FDB,|EeE FeF|GBD E3:|
|:egb afd|eBA GFE|egB afd|eBG E3::bgb afa|geg fdB|EGB egb|afd e3:|
